X: 674
M:6/4
L:1/4
K:D
cdeefe | edcB2A | AceAce | EA^GA3 | d>cBA>GF | E>edc>BA | dfaefd | eAcd3 ||

